src/images/icons/product-menu-open.svg

<?xml version="1.0" encoding="utf-8"?>
<!-- Generated by IcoMoon.io -->
<!DOCTYPE svg PUBLIC "-//W3C//DTD SVG 1.1//EN" "http://www.w3.org/Graphics/SVG/1.1/DTD/svg11.dtd">
<svg version="1.1" xmlns="http://www.w3.org/2000/svg" xmlns:xlink="http://www.w3.org/1999/xlink" width="512" height="512" viewBox="0 0 512 512">
<path d="M465.452 5.8h-418.905c-25.677 0-46.529 20.889-46.529 46.529v407.272c0 25.676 20.889 46.529 46.529 46.529h418.905c25.676 0 46.529-20.889 46.529-46.529v-407.238c0.036-25.677-20.853-46.565-46.529-46.565v0zM448 448h-192v-384h192v384z"></path>
</svg>

<?xml version="1.0" encoding="utf-8"?>
<!-- Generator: Adobe Illustrator 19.2.1, SVG Export Plug-In . SVG Version: 6.00 Build 0)  -->
<svg version="1.1" id="Layer_1" xmlns="http://www.w3.org/2000/svg" xmlns:xlink="http://www.w3.org/1999/xlink" x="0px" y="0px"
	 viewBox="0 0 512 512" style="enable-background:new 0 0 512 512;" xml:space="preserve">
<path class="lexicon-icon-body" fill="none" d="M465.5,5.8H46.5C20.9,5.8,0,26.7,0,52.3v407.3c0,25.7,20.9,46.5,46.5,46.5h418.9c25.7,0,46.5-20.9,46.5-46.5
	V52.4C512,26.7,491.1,5.8,465.5,5.8L465.5,5.8L465.5,5.8z"/>
<path class="lexicon-icon-outline" d="M465.5,5.8H46.5C20.9,5.8,0,26.7,0,52.3v407.3c0,25.7,20.9,46.5,46.5,46.5h418.9c25.7,0,46.5-20.9,46.5-46.5V52.4
	C512,26.7,491.1,5.8,465.5,5.8L465.5,5.8L465.5,5.8z M448,448H256V64h192V448z"/>
</svg>
